icons/rural_post_alt.svg

<svg width="48" height="48" viewBox="0 0 48 48" fill="none" xmlns="http://www.w3.org/2000/svg">
<path d="M25 9.54785C25 8.99557 24.5523 8.54785 24 8.54785C23.4477 8.54785 23 8.99557 23 9.54785V12.0479H20.5C19.9477 12.0479 19.5 12.4956 19.5 13.0479C19.5 13.6001 19.9477 14.0479 20.5 14.0479H23V16.5479C23 17.1001 23.4477 17.5479 24 17.5479C24.5523 17.5479 25 17.1001 25 16.5479V14.0479H27.5C28.0523 14.0479 28.5 13.6001 28.5 13.0479C28.5 12.4956 28.0523 12.0479 27.5 12.0479H25V9.54785Z" fill="black"/>
<path fill-rule="evenodd" clip-rule="evenodd" d="M24.9999 37V29H35.9999V37H24.9999ZM26.9999 35V31H33.9999V35H26.9999Z" fill="black"/>
<path fill-rule="evenodd" clip-rule="evenodd" d="M16.9999 10.0479C16.9999 7.83871 18.7908 6.04785 20.9999 6.04785H26.9999C29.2091 6.04785 30.9999 7.83871 30.9999 10.0479V15.0479H39.3879C40.0937 15.0479 40.706 15.5351 40.8645 16.2229L41.9758 21.0448C42.4473 23.0905 41.5699 25.0742 40 26.1709V42.0481H7.99971V26.171C6.42979 25.0742 5.55235 23.0905 6.02382 21.0448L7.13512 16.2229C7.29364 15.5351 7.90599 15.0479 8.61179 15.0479H16.9999V10.0479ZM26.9999 8.04785C28.1045 8.04785 28.9999 8.94328 28.9999 10.0479V16.0479C28.9999 17.1524 28.1045 18.0479 26.9999 18.0479H20.9999C19.8954 18.0479 18.9999 17.1524 18.9999 16.0479V10.0479C18.9999 8.94328 19.8954 8.04785 20.9999 8.04785H26.9999ZM26.9999 20.0479C28.8638 20.0479 30.4299 18.7731 30.8739 17.0479H32.1405V21.5166C32.1405 23.4668 30.5595 25.0479 28.6092 25.0479C26.659 25.0479 25.0779 23.4668 25.0779 21.5166V20.0479H26.9999ZM17.1259 17.0479C17.57 18.7731 19.1361 20.0479 20.9999 20.0479H22.9217V21.5166C22.9217 23.4668 21.3407 25.0479 19.3904 25.0479C17.4401 25.0479 15.8591 23.4668 15.8591 21.5166V17.0479H17.1259ZM37.1989 27.0479C37.4726 27.0479 37.7401 27.0257 38 26.9834V40.0481H21.9999V29H12.9999V40.0481H9.99971V26.9834C10.2596 27.0258 10.5271 27.0479 10.8007 27.0479C12.5349 27.0479 14.0587 26.1474 14.9302 24.7885C15.937 26.1586 17.5598 27.0479 19.3904 27.0479C21.3144 27.0479 23.0089 26.0656 23.9998 24.5752C24.9908 26.0656 26.6853 27.0479 28.6092 27.0479C30.4398 27.0479 32.0627 26.1586 33.0695 24.7885C33.9409 26.1474 35.4648 27.0479 37.1989 27.0479ZM8.99743 17.0479L7.97273 21.4939C7.55366 23.3123 8.93476 25.0479 10.8007 25.0479C12.4036 25.0479 13.7029 23.7485 13.7029 22.1457V17.0479H8.99743ZM40.0269 21.4939L39.0022 17.0479H34.2968V22.1457C34.2968 23.7485 35.5961 25.0479 37.1989 25.0479C39.0649 25.0479 40.446 23.3123 40.0269 21.4939ZM19.9999 31H14.9999V40H19.9999V31Z" fill="black"/>
</svg>

<svg
  xmlns="http://www.w3.org/2000/svg"
  width="24"
  height="24"
  viewBox="0 0 24 24"
  fill="none"
  stroke="currentColor"
  stroke-width="2"
  stroke-linecap="round"
  stroke-linejoin="round"
>
  <path d="M25 9.548a1 1 0 1 0-2 0v2.5h-2.5a1 1 0 1 0 0 2H23v2.5a1 1 0 0 0 2 0v-2.5h2.5a1 1 0 0 0 0-2H25z" />
  <path
    fill-rule="evenodd"
    d="M25 37v-8h11v8zm2-2v-4h7v4z"
    clip-rule="evenodd"
  />
  <path
    fill-rule="evenodd"
    d="M17 10.048a4 4 0 0 1 4-4h6a4 4 0 0 1 4 4v5h8.388c.706 0 1.318.487 1.477 1.175l1.11 4.822A4.9 4.9 0 0 1 40 26.17v15.877H8V26.171a4.9 4.9 0 0 1-1.976-5.126l1.111-4.822a1.515 1.515 0 0 1 1.477-1.175H17zm10-2a2 2 0 0 1 2 2v6a2 2 0 0 1-2 2h-6a2 2 0 0 1-2-2v-6a2 2 0 0 1 2-2zm0 12a4 4 0 0 0 3.874-3h1.267v4.469a3.531 3.531 0 0 1-7.063 0v-1.47zm-9.874-3c.444 1.725 2.01 3 3.874 3h1.922v1.469a3.531 3.531 0 0 1-7.063 0v-4.47zm20.073 10q.411 0 .801-.065v13.065H22V29h-9v11.048h-3V26.983q.39.065.8.065c1.735 0 3.259-.9 4.13-2.26a5.52 5.52 0 0 0 4.46 2.26A5.53 5.53 0 0 0 24 24.575a5.53 5.53 0 0 0 4.61 2.473c1.83 0 3.453-.89 4.46-2.26a4.9 4.9 0 0 0 4.129 2.26m-28.202-10-1.024 4.446a2.902 2.902 0 1 0 5.73.652v-5.098zm31.03 4.446-1.025-4.446h-4.705v5.098a2.902 2.902 0 1 0 5.73-.652M20 31h-5v9h5z"
    clip-rule="evenodd"
  />
</svg>
